X:96
T:Sadlors Baloon. JC.096
T:Saddler’s Balloon, aka. JC.096
R:jig
S:John Clare,Poet,Helpston. (1793-1864)
N:Saddler was a noted balloonist at the beginning of the 19thC, giving
N:public demonstrations of his flying skills all over the country. CGP.
O:England
A:Northamptonshire
Z:vmp.P. Headford
M:6/8
L:1/8
Q:3/8=120
K:D
D2F” crot”A3|\
d2fd2 ” qu’s”A/F/|G2B e2d|cBA GFE|!
D2F Ad2|f2d A2F|G2e cBA|” crots”c3 d3:|!
|:A2c e2c|A2d f2d|A2e g2e|(fed) (cBA)|!
d2A e2A|f2A g2e|(fed) (cBA)|” crots”d3 d3:|

